src/assets/img/tile2.svg

<?xml version="1.0" encoding="UTF-8"?>
<svg fill="none" viewBox="0 0 106 96" xmlns="http://www.w3.org/2000/svg">
<path d="m56.056 3.2798c9.8784-1.2445 23.634-5.8049 32.833-1.4062 9.5598 4.5711 10.361 12.344 13.857 23.731 3.582 11.668 4.266 24.186 1.758 36.233-2.661 12.787-10.259 11.09-19.284 18.922-9.0637 7.8657-22.507 16.679-37.833 15.043-26.933-2.8746-57.056-41.044-44.414-70.197 4.9513-11.418 14.331-18.936 28.109-22.325 13.348-1.1651 16.659 1.0476 24.974 0z" clip-rule="evenodd" fill="url(#a)" fill-rule="evenodd"/>
<path d="m84.592 22.22-14.828-6.4344c-0.2342-0.1014-0.4998-0.1014-0.734 0l-8.7821 3.8093c-4.6543-4.0707-11.248-5.0331-16.863-2.4616s-9.2161 8.2024-9.209 14.401v4.6545c-2.558 0.0031-4.6308 2.0852-4.6339 4.6545v26.065c0.0031 2.5693 2.0759 4.6514 4.6339 4.6544h31.51c2.5579-3e-3 4.6308-2.0851 4.6339-4.6544v-12.381c0.0296-0.0186 0.0639-0.0261 0.0926-0.0465l10.247-7.3281c2.8054-2.0004 4.4769-5.238 4.4884-8.6936v-15.385c5e-4 -0.3707-0.2179-0.7063-0.5561-0.8546zm-48.563 9.3146c-0.0016-5.3055 2.9912-10.153 7.7233-12.51 4.7321-2.357 10.385-1.8156 14.589 1.397l-4.1473 1.7985c-0.0112 6e-3 -0.022 0.0125-0.0325 0.0196-3.1519-1.4528-6.8232-1.1939-9.7421 0.6869s-4.6837 5.1248-4.6831 8.6081v4.6545h-3.7072v-4.6545zm17.609 4.6545h-12.048l1e-4 -4.6545c-0.0109-2.9028 1.4805-5.6028 3.9383-7.1298s5.5289-1.6616 8.1098-0.3556v12.14zm12.048 33.512h-31.51c-1.5355 0-2.7803-1.2504-2.7803-2.7927v-0.9309h5.5606c0.5119 0 0.9268-0.4168 0.9268-0.9309 0-0.5142-0.4149-0.9309-0.9268-0.9309h-5.5606v-1.8618h5.5606c0.5119 0 0.9268-0.4168 0.9268-0.9309 0-0.5142-0.4149-0.9309-0.9268-0.9309h-5.5606v-1.8618h5.5606c0.5119 0 0.9268-0.4168 0.9268-0.9309 0-0.5142-0.4149-0.9309-0.9268-0.9309h-5.5606v-1.8618h5.5606c0.5119 0 0.9268-0.4168 0.9268-0.9309 0-0.5142-0.4149-0.9309-0.9268-0.9309h-5.5606v-1.8618h5.5606c0.5119 0 0.9268-0.4168 0.9268-0.9309s-0.4149-0.9309-0.9268-0.9309h-5.5606v-1.8618h5.5606c0.5119 0 0.9268-0.4168 0.9268-0.9309s-0.4149-0.9309-0.9268-0.9309h-5.5606v-1.8618h5.5606c0.5119 0 0.9268-0.4168 0.9268-0.9309s-0.4149-0.9309-0.9268-0.9309h-5.5606v-0.9309c0-1.5424 1.2448-2.7927 2.7803-2.7927h19.462v0.4087c0.0107 3.4549 1.6816 6.692 4.4865 8.6918l8.1028 5.7939h-3.3216c-0.5118 0-0.9267 0.4167-0.9267 0.9309 0 0.5141 0.4149 0.9309 0.9267 0.9309h5.5607v1.8618h-5.5607c-0.5118 0-0.9267 0.4167-0.9267 0.9309 0 0.5141 0.4149 0.9309 0.9267 0.9309h5.5607v1.8618h-5.5607c-0.5118 0-0.9267 0.4167-0.9267 0.9309 0 0.5141 0.4149 0.9309 0.9267 0.9309h5.5607v1.8618h-5.5607c-0.5118 0-0.9267 0.4167-0.9267 0.9309 0 0.5141 0.4149 0.9309 0.9267 0.9309h5.5607v0.9309c0 1.5423-1.2448 2.7927-2.7803 2.7927zm17.609-31.242c-0.0101 2.8526-1.3907 5.5248-3.7071 7.1753l-10.194 7.289-10.195-7.289c-2.3163-1.6505-3.6969-4.3227-3.7071-7.1753v-14.773l4.9583-2.1513 0.0259-0.0112 8.9175-3.8697 13.902 6.0322v14.773z" fill="#fff"/>
<path d="m69.022 19.842-11.121 4.8258c-0.3382 0.1483-0.5566 0.4839-0.5561 0.8546v12.94c0.0105 2.2505 1.1014 4.3578 2.9296 5.6589l8.581 6.1346c0.3217 0.2301 0.7533 0.2301 1.0751 0l8.581-6.1346c1.8292-1.3011 2.9203-3.4094 2.9295-5.6608v-12.94c6e-4 -0.3706-0.2178-0.7063-0.556-0.8546l-11.121-4.8257c-0.2366-0.1031-0.5053-0.1024-0.7414 0.0018zm10.565 6.2938v12.324c-9e-3 1.6487-0.8102 3.1916-2.1511 4.1425l-8.0435 5.7502-8.0435-5.7502c-1.3402-0.9515-2.1411-2.494-2.151-4.1425v-12.324l10.194-4.4245 10.195 4.4245z" fill="#fff"/>
<path d="m63.593 36.11c-0.2649-0.1996-0.6156-0.242-0.9201-0.1114s-0.5165 0.4145-0.5561 0.7447 0.0992 0.6565 0.3641 0.8561l4.2363 3.1911c0.4004 0.3018 0.967 0.2297 1.2798-0.1629l8.4735-10.638c0.3197-0.4018 0.2546-0.9878-0.1455-1.3089-0.4-0.321-0.9834-0.2556-1.303 0.1462l-7.911 9.9336-3.518-2.6502z" fill="#fff"/>
<path d="m55.491 50.153c0.0011-2.6366-1.8335-4.9148-4.4007-5.4649-2.5671-0.55-5.1675 0.7781-6.2376 3.1856-1.07 2.4076-0.3182 5.2389 1.8033 6.7914l-1.3438 7.423c-0.0491 0.2714 0.0241 0.5508 0.2 0.7627s0.4364 0.3345 0.711 0.3348h7.4142c0.2747-3e-4 0.5352-0.1229 0.7111-0.3348s0.2491-0.4913 0.2-0.7627l-1.3439-7.423c1.4332-1.0532 2.2821-2.7284 2.2864-4.5121zm-3.7636 3.2581c-0.3441 0.1948-0.5275 0.5872-0.4569 0.9775l1.2548 6.9352h-5.1899l1.2567-6.9361c0.0706-0.3904-0.1128-0.7827-0.4569-0.9775-1.4781-0.8228-2.2151-2.5456-1.7921-4.189 0.4231-1.6434 1.8992-2.7914 3.5891-2.7914s3.166 1.148 3.5891 2.7914c0.423 1.6434-0.314 3.3662-1.7921 4.189l-0.0018 9e-4z" fill="#fff"/>
<defs>
<linearGradient id="a" x1="2.2819" x2="104.08" y1="10.082" y2="11.95" gradientUnits="userSpaceOnUse">
<stop stop-color="#255D8B" offset="0"/>
<stop stop-color="#3A80BA" offset="1"/>
</linearGradient>
</defs>
</svg>

<svg width="106" height="96" viewBox="0 0 106 96" fill="none" xmlns="http://www.w3.org/2000/svg">
<path fill-rule="evenodd" clip-rule="evenodd" d="M56.0558 3.27984C65.9342 2.03532 79.6894 -2.52504 88.8887 1.87365C98.4485 6.44475 99.2501 14.2177 102.746 25.6048C106.328 37.2732 107.012 49.7904 104.504 61.8378C101.843 74.6245 94.2446 72.9275 85.22 80.7593C76.1563 88.625 62.7132 97.4379 47.3866 95.8021C20.4536 92.9275 -9.66955 54.7583 2.97238 25.6048C7.92371 14.1866 17.3033 6.66872 31.0815 3.27984C44.429 2.11474 47.7409 4.32739 56.0558 3.27984Z" fill="url(#paint0_linear)"/>
<path d="M84.5915 22.2204L69.7631 15.786C69.5289 15.6846 69.2633 15.6846 69.0291 15.786L60.247 19.5953C55.5927 15.5246 48.9992 14.5622 43.3839 17.1337C37.7686 19.7052 34.1678 25.3361 34.1749 31.535V36.1895C31.6169 36.1926 29.5441 38.2747 29.541 40.844V66.9092C29.5441 69.4785 31.6169 71.5606 34.1749 71.5636H65.6853C68.2432 71.5606 70.3161 69.4785 70.3192 66.9092V54.5282C70.3488 54.5096 70.3831 54.5021 70.4118 54.4817L80.6592 47.1536C83.4646 45.1532 85.1361 41.9156 85.1476 38.46V23.075C85.1481 22.7043 84.9297 22.3687 84.5915 22.2204ZM36.0284 31.535C36.0268 26.2295 39.0196 21.3818 43.7517 19.0249C48.4838 16.6679 54.1371 17.2093 58.3406 20.4219L54.1933 22.2204C54.1821 22.2264 54.1713 22.2329 54.1608 22.24C51.0089 20.7872 47.3376 21.0461 44.4187 22.9269C41.4998 24.8077 39.735 28.0517 39.7356 31.535V36.1895H36.0284L36.0284 31.535ZM53.6372 36.1895H41.589L41.5891 31.535C41.5782 28.6322 43.0696 25.9322 45.5274 24.4052C47.9852 22.8782 51.0563 22.7436 53.6372 24.0496V36.1895ZM65.6853 69.7019H34.1749C32.6394 69.7019 31.3946 68.4515 31.3946 66.9092V65.9783H36.9552C37.4671 65.9783 37.882 65.5615 37.882 65.0474C37.882 64.5332 37.4671 64.1165 36.9552 64.1165H31.3946V62.2547H36.9552C37.4671 62.2547 37.882 61.8379 37.882 61.3238C37.882 60.8096 37.4671 60.3929 36.9552 60.3929H31.3946V58.5311H36.9552C37.4671 58.5311 37.882 58.1143 37.882 57.6002C37.882 57.086 37.4671 56.6693 36.9552 56.6693H31.3946V54.8075H36.9552C37.4671 54.8075 37.882 54.3907 37.882 53.8766C37.882 53.3624 37.4671 52.9457 36.9552 52.9457H31.3946V51.0839H36.9552C37.4671 51.0839 37.882 50.6671 37.882 50.153C37.882 49.6389 37.4671 49.2221 36.9552 49.2221H31.3946V47.3603H36.9552C37.4671 47.3603 37.882 46.9435 37.882 46.4294C37.882 45.9153 37.4671 45.4985 36.9552 45.4985H31.3946V43.6367H36.9552C37.4671 43.6367 37.882 43.2199 37.882 42.7058C37.882 42.1917 37.4671 41.7749 36.9552 41.7749H31.3946V40.844C31.3946 39.3016 32.6394 38.0513 34.1749 38.0513H53.6372V38.46C53.6479 41.9149 55.3188 45.152 58.1237 47.1518L66.2265 52.9457H62.9049C62.3931 52.9457 61.9782 53.3624 61.9782 53.8766C61.9782 54.3907 62.3931 54.8075 62.9049 54.8075H68.4656V56.6693H62.9049C62.3931 56.6693 61.9782 57.086 61.9782 57.6002C61.9782 58.1143 62.3931 58.5311 62.9049 58.5311H68.4656V60.3929H62.9049C62.3931 60.3929 61.9782 60.8096 61.9782 61.3238C61.9782 61.8379 62.3931 62.2547 62.9049 62.2547H68.4656V64.1165H62.9049C62.3931 64.1165 61.9782 64.5332 61.9782 65.0474C61.9782 65.5615 62.3931 65.9783 62.9049 65.9783H68.4656V66.9092C68.4656 68.4515 67.2208 69.7019 65.6853 69.7019ZM83.294 38.46C83.2839 41.3126 81.9033 43.9848 79.5869 45.6353L69.3924 52.9243L59.1978 45.6353C56.8815 43.9848 55.5009 41.3126 55.4907 38.46V23.6866L60.449 21.5353L60.4749 21.5241L69.3924 17.6544L83.294 23.6866V38.46Z" fill="white"/>
<path d="M69.0216 19.842L57.9003 24.6678C57.5621 24.8161 57.3437 25.1517 57.3442 25.5224V38.4619C57.3547 40.7124 58.4456 42.8197 60.2738 44.1208L68.8548 50.2554C69.1765 50.4855 69.6081 50.4855 69.9299 50.2554L78.5109 44.1208C80.3401 42.8197 81.4312 40.7114 81.4404 38.46V25.5205C81.441 25.1499 81.2226 24.8142 80.8844 24.6659L69.763 19.8402C69.5264 19.7371 69.2577 19.7378 69.0216 19.842ZM79.5869 26.1358V38.46C79.5779 40.1087 78.7767 41.6516 77.4358 42.6025L69.3923 48.3527L61.3488 42.6025C60.0086 41.651 59.2077 40.1085 59.1978 38.46V26.1358L69.3923 21.7113L79.5869 26.1358Z" fill="white"/>
<path d="M63.5926 36.1095C63.3277 35.9099 62.977 35.8675 62.6725 35.9981C62.368 36.1287 62.156 36.4126 62.1164 36.7428C62.0768 37.073 62.2156 37.3993 62.4805 37.5989L66.7168 40.79C67.1172 41.0918 67.6838 41.0197 67.9966 40.6271L76.4701 29.9888C76.7898 29.587 76.7247 29.001 76.3246 28.6799C75.9246 28.3589 75.3412 28.4243 75.0216 28.8261L67.1106 38.7597L63.5926 36.1095Z" fill="white"/>
<path d="M55.4908 50.153C55.4919 47.5164 53.6573 45.2382 51.0901 44.6881C48.523 44.1381 45.9226 45.4662 44.8525 47.8737C43.7825 50.2813 44.5343 53.1126 46.6558 54.6651L45.312 62.0881C45.2629 62.3595 45.3361 62.6389 45.512 62.8508C45.6879 63.0627 45.9484 63.1853 46.223 63.1856H53.6372C53.9119 63.1853 54.1724 63.0627 54.3483 62.8508C54.5242 62.6389 54.5974 62.3595 54.5483 62.0881L53.2044 54.6651C54.6376 53.6119 55.4865 51.9367 55.4908 50.153ZM51.7272 53.4111C51.3831 53.6059 51.1997 53.9983 51.2703 54.3886L52.5251 61.3238H47.3352L48.5919 54.3877C48.6625 53.9973 48.4791 53.605 48.135 53.4102C46.6569 52.5874 45.9199 50.8646 46.3429 49.2212C46.766 47.5778 48.2421 46.4298 49.932 46.4298C51.6219 46.4298 53.098 47.5778 53.5211 49.2212C53.9441 50.8646 53.2071 52.5874 51.729 53.4102L51.7272 53.4111Z" fill="white"/>
<defs>
<linearGradient id="paint0_linear" x1="2.28194" y1="10.0823" x2="104.079" y2="11.9505" gradientUnits="userSpaceOnUse">
<stop stop-color="#255D8B"/>
<stop offset="1" stop-color="#3A80BA"/>
</linearGradient>
</defs>
</svg>
